src/pages/index/img/icons/jest-logo.svg

<?xml version="1.0" encoding="UTF-8" standalone="no"?>
<svg width="256px" height="283px" viewBox="0 0 256 283" version="1.1" xmlns="http://www.w3.org/2000/svg" xmlns:xlink="http://www.w3.org/1999/xlink" preserveAspectRatio="xMidYMid">
	<g>
		<path d="M239.972557,139.203 C239.972557,124.669 228.190557,112.887 213.656557,112.887 C212.721557,112.887 211.799557,112.937 210.890557,113.032 L247.035557,6.427 L93.431557,6.427 L129.525557,112.94 C128.996557,112.908 128.464557,112.887 127.926557,112.887 C113.392557,112.887 101.610557,124.669 101.610557,139.203 C101.610557,150.951 109.309557,160.897 119.936557,164.281 C114.323557,174.003 107.261557,182.759 99.243557,190.323 C88.340557,200.609 75.862557,208.408 62.367557,213.214 C46.299557,204.96 38.711557,186.602 45.558557,170.507 C46.331557,168.69 47.120557,166.847 47.875557,165.013 C59.515557,162.296 68.189557,151.86 68.189557,139.392 C68.189557,124.858 56.407557,113.076 41.873557,113.076 C27.338557,113.076 15.556557,124.858 15.556557,139.392 C15.556557,148.305 19.991557,156.176 26.769557,160.937 C20.255557,175.768 10.681557,191.288 7.69855701,209.276 C4.12355701,230.835 7.68755701,253.719 26.332557,266.642 C69.756557,296.738 116.892557,247.985 166.591557,235.729 C184.602557,231.287 204.373557,232.003 220.242557,222.812 C232.159557,215.91 240.015557,204.472 242.245557,191.63 C244.447557,178.944 241.236557,166.313 233.852557,156.071 C237.671557,151.503 239.972557,145.623 239.972557,139.203 L239.972557,139.203 Z M154.240557,139.296 C154.240557,139.265 154.243557,139.234 154.243557,139.203 C154.243557,129.659 149.161557,121.301 141.557557,116.688 L170.285557,58.597 L199.063557,117.304 C191.996557,122.022 187.339557,130.068 187.339557,139.203 C187.339557,139.395 187.350557,139.584 187.354557,139.775 L154.240557,139.296 L154.240557,139.296 Z" fill="#C63D14"></path>
		<path d="M246.399036,139.203 C246.399036,123.218 234.882036,109.88 219.711036,107.031 L256.000036,0 L84.4660355,0 L120.810036,107.248 C106.167036,110.507 95.1830355,123.593 95.1830355,139.203 C95.1830355,150.926 101.378036,161.223 110.663036,167.009 C106.197036,173.662 100.901036,179.923 94.8320355,185.648 C85.2080355,194.728 74.4850355,201.614 62.9250355,206.144 C51.2820355,198.83 46.3600355,185.038 51.4720355,173.022 L51.8720355,172.082 C52.1220355,171.494 52.3730355,170.904 52.6230355,170.314 C65.4110355,165.855 74.6160355,153.682 74.6160355,139.392 C74.6160355,121.337 59.9270355,106.649 41.8720355,106.649 C23.8170355,106.649 9.12903553,121.337 9.12903553,139.392 C9.12903553,148.505 12.8740355,156.757 18.9020355,162.699 C17.8090355,165.029 16.6600355,167.397 15.4790355,169.823 C9.96703553,181.144 3.72003553,193.976 1.35703553,208.225 C-3.33596447,236.524 4.23303553,259.146 22.6700355,271.924 C33.8580355,279.678 45.2190355,282.728 56.6520355,282.727 C78.1810355,282.726 99.9580355,271.911 121.258036,261.331 C136.599036,253.712 152.461036,245.833 168.130036,241.969 C173.960036,240.531 179.959036,239.666 186.310036,238.75 C198.904036,236.933 211.928036,235.055 223.464036,228.374 C236.835036,220.629 245.989036,207.637 248.577036,192.73 C250.799036,179.933 248.124036,167.117 241.602036,156.247 C244.643036,151.279 246.399036,145.443 246.399036,139.203 L246.399036,139.203 Z M233.545036,139.203 C233.545036,150.17 224.623036,159.093 213.655036,159.093 C202.689036,159.093 193.766036,150.17 193.766036,139.203 C193.766036,128.236 202.689036,119.314 213.655036,119.314 C224.623036,119.314 233.545036,128.236 233.545036,139.203 L233.545036,139.203 Z M238.069036,12.854 L206.024036,107.367 C204.635036,107.7 203.281036,108.12 201.966036,108.625 L170.310036,44.047 L138.562036,108.243 C137.190036,107.77 135.778036,107.381 134.330036,107.093 L102.395036,12.854 L238.069036,12.854 L238.069036,12.854 Z M127.926036,119.314 C138.893036,119.314 147.815036,128.236 147.815036,139.203 C147.815036,150.17 138.893036,159.093 127.926036,159.093 C116.960036,159.093 108.037036,150.17 108.037036,139.203 C108.037036,128.236 116.960036,119.314 127.926036,119.314 L127.926036,119.314 Z M41.8720355,119.503 C52.8400355,119.503 61.7620355,128.425 61.7620355,139.392 C61.7620355,150.359 52.8400355,159.282 41.8720355,159.282 C30.9060355,159.282 21.9830355,150.359 21.9830355,139.392 C21.9830355,128.425 30.9060355,119.503 41.8720355,119.503 L41.8720355,119.503 Z M235.912036,190.531 C233.977036,201.679 227.091036,211.418 217.021036,217.25 C207.634036,222.687 196.385036,224.31 184.475036,226.027 C178.095036,226.947 171.497036,227.899 165.052036,229.489 C148.010036,233.691 131.503036,241.89 115.540036,249.819 C83.5950355,265.686 56.0060355,279.388 29.9930355,261.359 C10.9380355,248.153 11.8180355,223.718 14.0380355,210.328 C16.0950355,197.923 21.6570355,186.498 27.0360355,175.449 C27.9670355,173.537 28.8710355,171.664 29.7580355,169.803 C32.4260355,170.87 35.2630355,171.597 38.2200355,171.927 C32.7450355,189.998 41.3560355,209.646 59.4290355,218.931 L61.9020355,220.202 L64.5220355,219.269 C78.8100355,214.181 91.9750355,206.015 103.653036,194.998 C111.202036,187.877 117.689036,179.998 123.023036,171.579 C124.623036,171.82 126.260036,171.947 127.926036,171.947 C145.981036,171.947 160.670036,157.259 160.670036,139.203 C160.670036,129.493 156.417036,120.761 149.681036,114.759 L170.259036,73.147 L191.046036,115.552 C184.809036,121.518 180.912036,129.911 180.912036,139.203 C180.912036,157.259 195.600036,171.947 213.655036,171.947 C220.592036,171.947 227.027036,169.773 232.327036,166.079 C236.007036,173.612 237.378036,182.088 235.912036,190.531 L235.912036,190.531 Z" fill="#FFFFFF"></path>
	</g>
</svg>

<svg width="256" height="283" xmlns="http://www.w3.org/2000/svg" preserveAspectRatio="xMidYMid"><path d="M239.973 139.203c0-14.534-11.782-26.316-26.316-26.316-.935 0-1.857.05-2.766.145L247.036 6.427H93.432l36.094 106.513a26.437 26.437 0 00-1.6-.053c-14.533 0-26.315 11.782-26.315 26.316 0 11.748 7.699 21.694 18.326 25.078-5.613 9.722-12.675 18.478-20.693 26.042-10.903 10.286-23.381 18.085-36.876 22.891-16.068-8.254-23.656-26.612-16.81-42.707.774-1.817 1.563-3.66 2.318-5.494 11.64-2.717 20.314-13.153 20.314-25.621 0-14.534-11.782-26.316-26.316-26.316-14.535 0-26.317 11.782-26.317 26.316 0 8.913 4.435 16.784 11.213 21.545-6.514 14.831-16.088 30.351-19.071 48.339-3.575 21.559-.011 44.443 18.634 57.366 43.424 30.096 90.56-18.657 140.259-30.913 18.01-4.442 37.782-3.726 53.65-12.917 11.918-6.902 19.774-18.34 22.004-31.182 2.202-12.686-1.01-25.317-8.393-35.559a26.207 26.207 0 006.12-16.868zm-85.732.093l.003-.093c0-9.544-5.082-17.902-12.686-22.515l28.728-58.091 28.778 58.707c-7.067 4.718-11.724 12.764-11.724 21.899 0 .192.01.381.015.572l-33.114-.479z" fill="#C63D14"/><path d="M246.399 139.203c0-15.985-11.517-29.323-26.688-32.172L256 0H84.466l36.344 107.248c-14.643 3.259-25.627 16.345-25.627 31.955 0 11.723 6.195 22.02 15.48 27.806-4.466 6.653-9.762 12.914-15.831 18.639-9.624 9.08-20.347 15.966-31.907 20.496-11.643-7.314-16.565-21.106-11.453-33.122l.4-.94.751-1.768c12.788-4.459 21.993-16.632 21.993-30.922 0-18.055-14.689-32.743-32.744-32.743S9.129 121.337 9.129 139.392c0 9.113 3.745 17.365 9.773 23.307a551.638 551.638 0 01-3.423 7.124C9.967 181.144 3.72 193.976 1.357 208.225c-4.693 28.299 2.876 50.921 21.313 63.699 11.188 7.754 22.549 10.804 33.982 10.803 21.529-.001 43.306-10.816 64.606-21.396 15.341-7.619 31.203-15.498 46.872-19.362 5.83-1.438 11.829-2.303 18.18-3.219 12.594-1.817 25.618-3.695 37.154-10.376 13.371-7.745 22.525-20.737 25.113-35.644 2.222-12.797-.453-25.613-6.975-36.483a32.544 32.544 0 004.797-17.044zm-12.854 0c0 10.967-8.922 19.89-19.89 19.89-10.966 0-19.889-8.923-19.889-19.89s8.923-19.889 19.889-19.889c10.968 0 19.89 8.922 19.89 19.889zm4.524-126.349l-32.045 94.513a32.348 32.348 0 00-4.058 1.258L170.31 44.047l-31.748 64.196a32.34 32.34 0 00-4.232-1.15l-31.935-94.239h135.674zm-110.143 106.46c10.967 0 19.889 8.922 19.889 19.889 0 10.967-8.922 19.89-19.889 19.89-10.966 0-19.889-8.923-19.889-19.89s8.923-19.889 19.889-19.889zm-86.054.189c10.968 0 19.89 8.922 19.89 19.889 0 10.967-8.922 19.89-19.89 19.89-10.966 0-19.889-8.923-19.889-19.89s8.923-19.889 19.889-19.889zm194.04 71.028c-1.935 11.148-8.821 20.887-18.891 26.719-9.387 5.437-20.636 7.06-32.546 8.777-6.38.92-12.978 1.872-19.423 3.462-17.042 4.202-33.549 12.401-49.512 20.33-31.945 15.867-59.534 29.569-85.547 11.54-19.055-13.206-18.175-37.641-15.955-51.031 2.057-12.405 7.619-23.83 12.998-34.879a748.863 748.863 0 002.722-5.646 32.459 32.459 0 008.462 2.124c-5.475 18.071 3.136 37.719 21.209 47.004l2.473 1.271 2.62-.933c14.288-5.088 27.453-13.254 39.131-24.271 7.549-7.121 14.036-15 19.37-23.419a32.9 32.9 0 004.903.368c18.055 0 32.744-14.688 32.744-32.744 0-9.71-4.253-18.442-10.989-24.444l20.578-41.612 20.787 42.405c-6.237 5.966-10.134 14.359-10.134 23.651 0 18.056 14.688 32.744 32.743 32.744a32.549 32.549 0 0018.672-5.868c3.68 7.533 5.051 16.009 3.585 24.452z" fill="#FFF"/></svg>
